svg/300/sharp/auto_awesome_motion.svg

<svg xmlns="http://www.w3.org/2000/svg" width="48" height="48" viewBox="0 -960 960 960"><path d="M361.542-100.001v-498.457h498.457v498.457H361.542Zm45.383-45.384h407.69v-407.69h-407.69v407.69Zm-176.154-70.617v-513.227h513.227v45.384H276.155v467.843h-45.384Zm-130.77-130.77v-513.227h513.227v45.384H145.385v467.843h-45.384Zm306.924 201.387v-407.69 407.69Z"/></svg>

<svg xmlns="http://www.w3.org/2000/svg" width="48" height="48" viewBox="0 -960 960 960"><path d="M361.54-100v-498.46H860V-100H361.54Zm45.39-45.39h407.68v-407.68H406.93v407.68ZM230.77-216v-513.23H744v45.39H276.16V-216h-45.39ZM100-346.77V-860h513.23v45.39H145.39v467.84H100Zm306.93 201.38v-407.68 407.68Z"/></svg>
